X: 312
T: Zhok Betrinesc "Old People's Dance"
Q: 1/4=92
B: German Goldenshteyn "Shpilt klezmorimlach klingen zoln di gesalach" New York 2003 v.3 #12
Z: 2012 John Chambers <jc:trillian.mit.edu>
M: 4/4
L: 1/16
K: Em
%%slurgraces
E2G2B,2"^>"(^D2 E2)G2B,2"^>"(D2 E2)G2B,2"^>"(D2 E2)G2B,2D2 \
|:\
(EGBe) (gf)e^d (de)B2- B2B2 |\
(EGBe) (gf)e^d (de)B2- B2B2 |\
(gfg).e (fef).d (e^de).c (=d^cd).B |
(=cBc).A (B^AB).^G =A2B2c2^c2 |\
(3d2^c2d2 (3=c2B2c2 (T=B3A) A^GAF |\
G8- G2F2G2A2 |\
(3_B2A2B2 (TA3G) (3G2F2G2 (TF3E) |
E2B2- B12 |\
{de}(3d2^c2d2 (3f2e2d2 (3=c2B2A2 (3~A2G2F2 |\
{F}G4 A4 B4 {d}(3c2B2c2 |\
TB3A A^GAF {F}G4 {G}=FEFD |
[1 E12- EGF^D :|\
[2 E8- E2E^D =D^C=CB, \
|:\
B,3B, TA2GF GETF2- FB,CB, |\
B,AGF GEF^D EB,E^D =D^C=CB, |
B,3B, TA2GF GEF2- FB,CB, |\
[1 B,AGF GEF^D EDEF GA^AB :|\
[2 B,AGF GEF^D E4 zGF^D |]\
[3 B,AGF GEF^D E2B2 e2z2 |]
